assets/Bell pepper/Flat/bell_pepper_flat.svg

<svg width="32" height="32" viewBox="0 0 32 32" fill="none" xmlns="http://www.w3.org/2000/svg">
<path d="M17.1546 5.1607C18.8982 5.66005 20.1742 7.26601 20.1742 9.17C20.1742 11.473 18.3073 13.34 16.0042 13.34C13.7012 13.34 11.8342 11.473 11.8342 9.17C11.8342 7.17821 13.2307 5.51258 15.0979 5.09876C15.1833 4.70216 15.3321 4.3149 15.5442 3.95C16.2342 2.73 17.5642 2 18.9642 2H19.0042C19.5542 2 20.0042 2.45 20.0042 3C20.0042 3.55 19.5542 4 19.0042 4H18.9542C18.2542 4 17.6042 4.36 17.2542 4.96C17.2168 5.0255 17.1836 5.09251 17.1546 5.1607Z" fill="#C3EF3C"/>
<path d="M4.33428 26.19C4.52428 28.34 6.33428 30 8.49428 30C10.7943 30 12.6643 28.13 12.6543 25.82V10.12C12.6543 8.4 11.2643 7 9.53428 7H6.75428C4.55428 7 2.82428 8.88 3.01428 11.07L4.33428 26.19Z" fill="#44911B"/>
<path d="M27.6743 26.19C27.4843 28.34 25.6743 30 23.5143 30C21.2143 30 19.3443 28.13 19.3543 25.82V10.12C19.3543 8.4 20.7443 7 22.4743 7H25.2543C27.4543 7 29.1843 8.88 28.9843 11.08L27.6743 26.19Z" fill="#44911B"/>
<path d="M16.0044 30C12.6944 30 10.0044 27.31 10.0044 24V10.75C10.0044 8.68 11.6844 7 13.7544 7H18.2544C20.3244 7 22.0044 8.68 22.0044 10.75V24C22.0044 27.31 19.3144 30 16.0044 30Z" fill="#008463"/>
</svg>

<svg xmlns="http://www.w3.org/2000/svg" width="32" height="32" fill="none"><path fill="#C3EF3C" d="M17.155 5.16a4.172 4.172 0 0 1-1.15 8.18 4.17 4.17 0 0 1-.907-8.241c.085-.397.234-.784.446-1.149.69-1.22 2.02-1.95 3.42-1.95h.04c.55 0 1 .45 1 1s-.45 1-1 1h-.05c-.7 0-1.35.36-1.7.96a1.92 1.92 0 0 0-.1.2Z"/><path fill="#44911B" d="M4.334 26.19c.19 2.15 2 3.81 4.16 3.81 2.3 0 4.17-1.87 4.16-4.18v-15.7c0-1.72-1.39-3.12-3.12-3.12h-2.78a3.75 3.75 0 0 0-3.74 4.07l1.32 15.12ZM27.674 26.19c-.19 2.15-2 3.81-4.16 3.81-2.3 0-4.17-1.87-4.16-4.18v-15.7c0-1.72 1.39-3.12 3.12-3.12h2.78c2.2 0 3.93 1.88 3.73 4.08l-1.31 15.11Z"/><path fill="#008463" d="M16.004 30c-3.31 0-6-2.69-6-6V10.75c0-2.07 1.68-3.75 3.75-3.75h4.5c2.07 0 3.75 1.68 3.75 3.75V24c0 3.31-2.69 6-6 6Z"/></svg>
